images/icons/dark/team.svg

<svg height="80" viewBox="0 0 80 80" width="80" xmlns="http://www.w3.org/2000/svg" xmlns:xlink="http://www.w3.org/1999/xlink"><defs><path id="a" d="m54.9389722 6.71232877c10.8010232 0 20.0610278 8.11886113 20.0610278 18.34993773v44.9377335h-29.2571724v-13.2938979h-3.0268491c-5.3933581 0-7.8380342-2.3929773-7.8380342-7.7148194v-2.9202989h-6.9702492l6.9748247-21.4022718c.2337861-10.0449442 9.3942951-17.95638323 20.0564524-17.95638323zm15.2498427 58.49315073v-40.143213c0-7.4367918-6.9786265-13.5554172-15.2498427-13.5554172-8.2712163 0-15.2498428 6.1186254-15.2498428 13.5554172v.3795146l-5.1603929 15.8346822h5.1603929v7.7148194c0 2.6544967.2715447 2.9202989 3.0268491 2.9202989h7.8380342v13.2938979zm-63.1944016-47.2501606c.23496966-10.0460262 9.4185801-17.9553189 20.1051216-17.9553189 2.6975916 0 5.377455.52585267 7.8941055 1.52291059l-1.7774271 4.45533698c-1.9587322-.77601934-4.0365022-1.18372702-6.1166784-1.18372702-8.2987673 0-15.2985471 6.12028845-15.2985471 13.55541715v.3805101l-5.17430312 15.8336867h5.17430312v7.7148194c0 2.6529874.2738399 2.9202989 3.0418351 2.9202989h7.8530201v13.2938979h9.8511195v4.7945205h-14.6623046v-13.2938979h-3.041835c-5.40314632 0-7.85302018-2.391468-7.85302018-7.7148194v-2.9202989h-6.98980272z"/><filter id="b" height="102.9%" width="105.3%" x="-1.3%" y="-1.4%"><feOffset dx="2" dy="0" in="SourceAlpha" result="shadowOffsetOuter1"/><feColorMatrix in="shadowOffsetOuter1" type="matrix" values="0 0 0 0 0.0901960784   0 0 0 0 0.882352941   0 0 0 0 0.996078431  0 0 0 1 0"/></filter><filter id="c" height="102.9%" width="105.3%" x="-1.3%" y="-1.4%"><feOffset dx="2" dy="0" in="SourceAlpha" result="shadowOffsetInner1"/><feComposite in="shadowOffsetInner1" in2="SourceAlpha" k2="-1" k3="1" operator="arithmetic" result="shadowInnerInner1"/><feColorMatrix in="shadowInnerInner1" type="matrix" values="0 0 0 0 1   0 0 0 0 0.152941176   0 0 0 0 0.321568627  0 0 0 1 0"/></filter><path id="d" d="m56.9389722 6.71232877c10.8010232 0 20.0610278 8.11886113 20.0610278 18.34993773v44.9377335h-29.2571724v-13.2938979h-3.0268491c-5.3933581 0-7.8380342-2.3929773-7.8380342-7.7148194v-2.9202989h-6.9702492l6.9748247-21.4022718c.2337861-10.0449442 9.3942951-17.95638323 20.0564524-17.95638323zm15.2498427 58.49315073v-40.143213c0-7.4367918-6.9786265-13.5554172-15.2498427-13.5554172-8.2712163 0-15.2498428 6.1186254-15.2498428 13.5554172v.3795146l-5.1603929 15.8346822h5.1603929v7.7148194c0 2.6544967.2715447 2.9202989 3.0268491 2.9202989h7.8380342v13.2938979zm-63.1944016-47.2501606c.23496966-10.0460262 9.4185801-17.9553189 20.1051216-17.9553189 2.6975916 0 5.377455.52585267 7.8941055 1.52291059l-1.7774271 4.45533698c-1.9587322-.77601934-4.0365022-1.18372702-6.1166784-1.18372702-8.2987673 0-15.2985471 6.12028845-15.2985471 13.55541715v.3805101l-5.17430312 15.8336867h5.17430312v7.7148194c0 2.6529874.2738399 2.9202989 3.0418351 2.9202989h7.8530201v13.2938979h9.8511195v4.7945205h-14.6623046v-13.2938979h-3.041835c-5.4031463 0-7.85302018-2.391468-7.85302018-7.7148194v-2.9202989h-6.98980272z"/><filter id="e" height="101.4%" width="101.3%" x="-.7%" y="-.7%"><feOffset dx="1" dy="0" in="SourceAlpha" result="shadowOffsetInner1"/><feComposite in="shadowOffsetInner1" in2="SourceAlpha" k2="-1" k3="1" operator="arithmetic" result="shadowInnerInner1"/><feColorMatrix in="shadowInnerInner1" type="matrix" values="0 0 0 0 1   0 0 0 0 0.152941176   0 0 0 0 0.321568627  0 0 0 0.5 0"/></filter><mask id="f" fill="#fff"><use fill="#fff" fill-rule="evenodd" xlink:href="#a"/></mask></defs><g fill="none" transform="translate(2 5)"><use fill="#000" filter="url(#b)" xlink:href="#a"/><use fill="#ff2752" fill-rule="evenodd" xlink:href="#a"/><g fill="#000"><use filter="url(#c)" xlink:href="#a"/><g mask="url(#f)"><use fill-rule="evenodd" xlink:href="#d"/><use filter="url(#e)" xlink:href="#d"/></g></g></g></svg>

<?xml version="1.0" encoding="UTF-8"?>
<svg width="80px" height="80px" viewBox="0 0 80 80" version="1.1" xmlns="http://www.w3.org/2000/svg" xmlns:xlink="http://www.w3.org/1999/xlink">
    <!-- Generator: Sketch 49.1 (51147) - http://www.bohemiancoding.com/sketch -->
    <title>Atoms/Icons/80/Team</title>
    <desc>Created with Sketch.</desc>
    <defs>
        <path d="M54.9389722,6.71232877 C65.7399954,6.71232877 75,14.8311899 75,25.0622665 L75,70 L45.7428276,70 L45.7428276,56.7061021 L42.7159785,56.7061021 C37.3226204,56.7061021 34.8779443,54.3131248 34.8779443,48.9912827 L34.8779443,46.0709838 L27.9076951,46.0709838 L34.8825198,24.668712 C35.1163059,14.6237678 44.2768149,6.71232877 54.9389722,6.71232877 Z M70.1888149,65.2054795 L70.1888149,25.0622665 C70.1888149,17.6254747 63.2101884,11.5068493 54.9389722,11.5068493 C46.6677559,11.5068493 39.6891294,17.6254747 39.6891294,25.0622665 L39.6891294,25.4417811 L34.5287365,41.2764633 L39.6891294,41.2764633 L39.6891294,48.9912827 C39.6891294,51.6457794 39.9606741,51.9115816 42.7159785,51.9115816 L50.5540127,51.9115816 L50.5540127,65.2054795 L70.1888149,65.2054795 Z M6.9944133,17.9553189 C7.22938296,7.9092927 16.4129934,0 27.0995349,0 C29.7971265,0 32.4769899,0.525852668 34.9936404,1.52291059 L33.2162133,5.97824757 C31.2574811,5.20222823 29.1797111,4.79452055 27.0995349,4.79452055 C18.8007676,4.79452055 11.8009878,10.914809 11.8009878,18.3499377 L11.8009878,18.7304478 L6.62668468,34.5641345 L11.8009878,34.5641345 L11.8009878,42.2789539 C11.8009878,44.9319413 12.0748277,45.1992528 14.8428229,45.1992528 L22.695843,45.1992528 L22.695843,58.4931507 L32.5469625,58.4931507 L32.5469625,63.2876712 L17.8846579,63.2876712 L17.8846579,49.9937733 L14.8428229,49.9937733 C9.43967658,49.9937733 6.98980272,47.6023053 6.98980272,42.2789539 L6.98980272,39.358655 L0,39.358655 L6.9944133,17.9553189 Z" id="path-1"></path>
        <filter x="-1.3%" y="-1.4%" width="105.3%" height="102.9%" filterUnits="objectBoundingBox" id="filter-3">
            <feOffset dx="2" dy="0" in="SourceAlpha" result="shadowOffsetOuter1"></feOffset>
            <feColorMatrix values="0 0 0 0 0.0901960784   0 0 0 0 0.882352941   0 0 0 0 0.996078431  0 0 0 1 0" type="matrix" in="shadowOffsetOuter1"></feColorMatrix>
        </filter>
        <filter x="-1.3%" y="-1.4%" width="105.3%" height="102.9%" filterUnits="objectBoundingBox" id="filter-4">
            <feOffset dx="2" dy="0" in="SourceAlpha" result="shadowOffsetInner1"></feOffset>
            <feComposite in="shadowOffsetInner1" in2="SourceAlpha" operator="arithmetic" k2="-1" k3="1" result="shadowInnerInner1"></feComposite>
            <feColorMatrix values="0 0 0 0 1   0 0 0 0 0.152941176   0 0 0 0 0.321568627  0 0 0 1 0" type="matrix" in="shadowInnerInner1"></feColorMatrix>
        </filter>
        <path d="M56.9389722,6.71232877 C67.7399954,6.71232877 77,14.8311899 77,25.0622665 L77,70 L47.7428276,70 L47.7428276,56.7061021 L44.7159785,56.7061021 C39.3226204,56.7061021 36.8779443,54.3131248 36.8779443,48.9912827 L36.8779443,46.0709838 L29.9076951,46.0709838 L36.8825198,24.668712 C37.1163059,14.6237678 46.2768149,6.71232877 56.9389722,6.71232877 Z M72.1888149,65.2054795 L72.1888149,25.0622665 C72.1888149,17.6254747 65.2101884,11.5068493 56.9389722,11.5068493 C48.6677559,11.5068493 41.6891294,17.6254747 41.6891294,25.0622665 L41.6891294,25.4417811 L36.5287365,41.2764633 L41.6891294,41.2764633 L41.6891294,48.9912827 C41.6891294,51.6457794 41.9606741,51.9115816 44.7159785,51.9115816 L52.5540127,51.9115816 L52.5540127,65.2054795 L72.1888149,65.2054795 Z M8.9944133,17.9553189 C9.22938296,7.9092927 18.4129934,0 29.0995349,0 C31.7971265,0 34.4769899,0.525852668 36.9936404,1.52291059 L35.2162133,5.97824757 C33.2574811,5.20222823 31.1797111,4.79452055 29.0995349,4.79452055 C20.8007676,4.79452055 13.8009878,10.914809 13.8009878,18.3499377 L13.8009878,18.7304478 L8.62668468,34.5641345 L13.8009878,34.5641345 L13.8009878,42.2789539 C13.8009878,44.9319413 14.0748277,45.1992528 16.8428229,45.1992528 L24.695843,45.1992528 L24.695843,58.4931507 L34.5469625,58.4931507 L34.5469625,63.2876712 L19.8846579,63.2876712 L19.8846579,49.9937733 L16.8428229,49.9937733 C11.4396766,49.9937733 8.98980272,47.6023053 8.98980272,42.2789539 L8.98980272,39.358655 L2,39.358655 L8.9944133,17.9553189 Z" id="path-5"></path>
        <filter x="-0.7%" y="-0.7%" width="101.3%" height="101.4%" filterUnits="objectBoundingBox" id="filter-6">
            <feOffset dx="1" dy="0" in="SourceAlpha" result="shadowOffsetInner1"></feOffset>
            <feComposite in="shadowOffsetInner1" in2="SourceAlpha" operator="arithmetic" k2="-1" k3="1" result="shadowInnerInner1"></feComposite>
            <feColorMatrix values="0 0 0 0 1   0 0 0 0 0.152941176   0 0 0 0 0.321568627  0 0 0 0.5 0" type="matrix" in="shadowInnerInner1"></feColorMatrix>
        </filter>
    </defs>
    <g id="Atoms/Icons/80/Team" stroke="none" stroke-width="1" fill="none" fill-rule="evenodd">
        <g id="Team-icon" transform="translate(2.000000, 5.000000)">
            <mask id="mask-2" fill="white">
                <use xlink:href="#path-1"></use>
            </mask>
            <g id="Combined-Shape" fill-rule="nonzero">
                <use fill="black" fill-opacity="1" filter="url(#filter-3)" xlink:href="#path-1"></use>
                <use fill="#FF2752" fill-rule="evenodd" xlink:href="#path-1"></use>
                <use fill="black" fill-opacity="1" filter="url(#filter-4)" xlink:href="#path-1"></use>
            </g>
            <g id="Combined-Shape" mask="url(#mask-2)" fill-rule="nonzero">
                <use fill="#000000" fill-rule="evenodd" xlink:href="#path-5"></use>
                <use fill="black" fill-opacity="1" filter="url(#filter-6)" xlink:href="#path-5"></use>
            </g>
        </g>
    </g>
</svg>
